X:16
T:The Parting Glass
T:Harmony 2
C:Trad, Arr. Adam Blaine
L:1/8
R:Air
M:4/4
Q:"70 bpm"
K:D
{g}fe | {Gdc}d3B {gBd}B2{g}AB | {gc}d2{e}A2 {gef}e3 {g}d/e/ | {g}f3g {fg}fe {g}de |
{g}f4 e2 {g}fe | {g}f4 {gf}g4 [M:5/4] | {a}g2 e2  {g}d4 c2 [M:3/4] | {g}de {ag}Ha2 Hf2 [Q:1/4=115] [M:4/4]| {ag}a6 ef  | {g}d4 {e}A4 | {ge}f8 |]

